content/sets-and-functions/images/subset.svg

<svg height="131pt" viewBox="0 0 131 131" width="131pt" xmlns="http://www.w3.org/2000/svg" xmlns:xlink="http://www.w3.org/1999/xlink"><symbol id="a" overflow="visible"><path d="m9.109375-9.96875c0-.125-.09375-.125-.125-.125-.0625 0-.078125.015625-.25.21875-.078125.109375-.671875.859375-.6875.859375-.46875-.921875-1.421875-1.078125-2.015625-1.078125-1.828125 0-3.484375 1.65625-3.484375 3.28125 0 1.078125.65625 1.703125 1.359375 1.953125.15625.046875 1 .28125 1.421875.390625.734375.1875.921875.25 1.234375.5625.046875.078125.34375.40625.34375 1.078125 0 1.34375-1.234375 2.71875-2.671875 2.71875-1.171875 0-2.484375-.5-2.484375-2.109375 0-.28125.0625-.625.09375-.765625 0-.046875.015625-.109375.015625-.140625 0-.0625-.015625-.125-.140625-.125s-.140625.015625-.203125.265625l-.734375 2.9375c0 .015625-.046875.203125-.046875.21875 0 .125.109375.125.140625.125.0625 0 .078125-.015625.25-.21875l.65625-.859375c.34375.515625 1.09375 1.078125 2.421875 1.078125 1.84375 0 3.546875-1.78125 3.546875-3.578125 0-.609375-.140625-1.140625-.6875-1.671875-.3125-.296875-.5625-.375-1.890625-.71875-.953125-.25-1.078125-.296875-1.34375-.53125-.25-.234375-.421875-.578125-.421875-1.0625 0-1.21875 1.21875-2.4375 2.578125-2.4375 1.40625 0 2.0625.859375 2.0625 2.21875 0 .375-.078125.75-.078125.8125 0 .125.125.125.171875.125.125 0 .140625-.03125.1875-.265625zm0 0"/></symbol><symbol id="b" overflow="visible"><path d="m5.984375-8.75c.078125-.34375.109375-.46875.328125-.53125.109375-.03125.59375-.03125.890625-.03125 1.4375 0 2.109375.0625 2.109375 1.171875 0 .21875-.0625.765625-.140625 1.296875l-.015625.171875c0 .0625.046875.140625.140625.140625.140625 0 .140625-.0625.1875-.296875l.40625-2.53125c.03125-.140625.03125-.171875.03125-.203125 0-.15625-.078125-.15625-.375-.15625h-7.84375c-.328125 0-.34375.015625-.421875.265625l-.875 2.578125c-.015625.03125-.0625.1875-.0625.203125 0 .078125.0625.140625.140625.140625.125 0 .140625-.046875.203125-.234375.609375-1.734375.90625-2.546875 2.8125-2.546875h.953125c.359375 0 .5 0 .5.15625 0 .046875 0 .078125-.078125.328125l-1.921875 7.703125c-.140625.5625-.171875.703125-1.6875.703125-.359375 0-.46875 0-.46875.28125 0 .140625.171875.140625.234375.140625.359375 0 .734375-.03125 1.09375-.03125h2.234375c.359375 0 .75.03125 1.109375.03125.15625 0 .296875 0 .296875-.265625 0-.15625-.09375-.15625-.46875-.15625-1.296875 0-1.296875-.125-1.296875-.34375 0-.015625 0-.109375.0625-.34375zm0 0"/></symbol><path d="m320 704c0 35.347656-28.652344 64-64 64s-64-28.652344-64-64 28.652344-64 64-64 64 28.652344 64 64" style="fill-rule:evenodd;fill:#add8e6;stroke-width:2;stroke-linejoin:round;stroke:#00008b;stroke-miterlimit:10" transform="matrix(1 0 0 -1 -190.5 769.5)"/><path d="m320 704c0 26.511719-21.488281 48-48 48s-48-21.488281-48-48 21.488281-48 48-48 48 21.488281 48 48" style="fill-rule:evenodd;fill:#ffffe0;stroke-width:2;stroke-linejoin:round;stroke:#006400;stroke-miterlimit:10" transform="matrix(1 0 0 -1 -190.5 769.5)"/><use fill="#00008b" x="22.204" xlink:href="#a" y="97.011"/><use fill="#006400" x="54.11" xlink:href="#b" y="95.004"/><g fill="#00008b" fill-rule="evenodd"><path d="m71.363281 48.652344c0-.992188-.808593-1.796875-1.800781-1.796875-.996094 0-1.800781.804687-1.800781 1.796875 0 .996094.804687 1.800781 1.800781 1.800781.992188 0 1.800781-.804687 1.800781-1.800781"/><path d="m99.496094 61.707031c0-.996093-.804688-1.800781-1.800782-1.800781-.992187 0-1.800781.804688-1.800781 1.800781 0 .992188.808594 1.800781 1.800781 1.800781.996094 0 1.800782-.808593 1.800782-1.800781"/><path d="m80.0625 75.339844c0-.996094-.804688-1.800782-1.800781-1.800782-.992188 0-1.796875.804688-1.796875 1.800782 0 .992187.804687 1.796875 1.796875 1.796875.996093 0 1.800781-.804688 1.800781-1.796875"/><path d="m18.28125 52.714844c0-.996094-.804688-1.800782-1.796875-1.800782-.996094 0-1.800781.804688-1.800781 1.800782s.804687 1.800781 1.800781 1.800781c.992187 0 1.796875-.804687 1.796875-1.800781"/><path d="m46.996094 21.097656c0-.992187-.804688-1.796875-1.796875-1.796875-.996094 0-1.800781.804688-1.800781 1.796875 0 .996094.804687 1.800782 1.800781 1.800782.992187 0 1.796875-.804688 1.796875-1.800782"/><path d="m42.066406 108.984375c0-.996094-.804687-1.800781-1.800781-1.800781-.992187 0-1.796875.804687-1.796875 1.800781 0 .992187.804688 1.800781 1.796875 1.800781.996094 0 1.800781-.808594 1.800781-1.800781"/><path d="m93.40625 84.910156c0-.996094-.808594-1.800781-1.800781-1.800781-.996094 0-1.800781.804687-1.800781 1.800781 0 .992188.804687 1.800782 1.800781 1.800782.992187 0 1.800781-.808594 1.800781-1.800782"/></g></svg>

<?xml version="1.0" encoding="UTF-8"?>
<svg xmlns="http://www.w3.org/2000/svg" xmlns:xlink="http://www.w3.org/1999/xlink" width="131pt" height="131pt" viewBox="0 0 131 131" version="1.1">
<defs>
<g>
<symbol overflow="visible" id="glyph0-0">
<path style="stroke:none;" d=""/>
</symbol>
<symbol overflow="visible" id="glyph0-1">
<path style="stroke:none;" d="M 9.109375 -9.96875 C 9.109375 -10.09375 9.015625 -10.09375 8.984375 -10.09375 C 8.921875 -10.09375 8.90625 -10.078125 8.734375 -9.875 C 8.65625 -9.765625 8.0625 -9.015625 8.046875 -9.015625 C 7.578125 -9.9375 6.625 -10.09375 6.03125 -10.09375 C 4.203125 -10.09375 2.546875 -8.4375 2.546875 -6.8125 C 2.546875 -5.734375 3.203125 -5.109375 3.90625 -4.859375 C 4.0625 -4.8125 4.90625 -4.578125 5.328125 -4.46875 C 6.0625 -4.28125 6.25 -4.21875 6.5625 -3.90625 C 6.609375 -3.828125 6.90625 -3.5 6.90625 -2.828125 C 6.90625 -1.484375 5.671875 -0.109375 4.234375 -0.109375 C 3.0625 -0.109375 1.75 -0.609375 1.75 -2.21875 C 1.75 -2.5 1.8125 -2.84375 1.84375 -2.984375 C 1.84375 -3.03125 1.859375 -3.09375 1.859375 -3.125 C 1.859375 -3.1875 1.84375 -3.25 1.71875 -3.25 C 1.59375 -3.25 1.578125 -3.234375 1.515625 -2.984375 L 0.78125 -0.046875 C 0.78125 -0.03125 0.734375 0.15625 0.734375 0.171875 C 0.734375 0.296875 0.84375 0.296875 0.875 0.296875 C 0.9375 0.296875 0.953125 0.28125 1.125 0.078125 L 1.78125 -0.78125 C 2.125 -0.265625 2.875 0.296875 4.203125 0.296875 C 6.046875 0.296875 7.75 -1.484375 7.75 -3.28125 C 7.75 -3.890625 7.609375 -4.421875 7.0625 -4.953125 C 6.75 -5.25 6.5 -5.328125 5.171875 -5.671875 C 4.21875 -5.921875 4.09375 -5.96875 3.828125 -6.203125 C 3.578125 -6.4375 3.40625 -6.78125 3.40625 -7.265625 C 3.40625 -8.484375 4.625 -9.703125 5.984375 -9.703125 C 7.390625 -9.703125 8.046875 -8.84375 8.046875 -7.484375 C 8.046875 -7.109375 7.96875 -6.734375 7.96875 -6.671875 C 7.96875 -6.546875 8.09375 -6.546875 8.140625 -6.546875 C 8.265625 -6.546875 8.28125 -6.578125 8.328125 -6.8125 Z M 9.109375 -9.96875 "/>
</symbol>
<symbol overflow="visible" id="glyph0-2">
<path style="stroke:none;" d="M 5.984375 -8.75 C 6.0625 -9.09375 6.09375 -9.21875 6.3125 -9.28125 C 6.421875 -9.3125 6.90625 -9.3125 7.203125 -9.3125 C 8.640625 -9.3125 9.3125 -9.25 9.3125 -8.140625 C 9.3125 -7.921875 9.25 -7.375 9.171875 -6.84375 L 9.15625 -6.671875 C 9.15625 -6.609375 9.203125 -6.53125 9.296875 -6.53125 C 9.4375 -6.53125 9.4375 -6.59375 9.484375 -6.828125 L 9.890625 -9.359375 C 9.921875 -9.5 9.921875 -9.53125 9.921875 -9.5625 C 9.921875 -9.71875 9.84375 -9.71875 9.546875 -9.71875 L 1.703125 -9.71875 C 1.375 -9.71875 1.359375 -9.703125 1.28125 -9.453125 L 0.40625 -6.875 C 0.390625 -6.84375 0.34375 -6.6875 0.34375 -6.671875 C 0.34375 -6.59375 0.40625 -6.53125 0.484375 -6.53125 C 0.609375 -6.53125 0.625 -6.578125 0.6875 -6.765625 C 1.296875 -8.5 1.59375 -9.3125 3.5 -9.3125 L 4.453125 -9.3125 C 4.8125 -9.3125 4.953125 -9.3125 4.953125 -9.15625 C 4.953125 -9.109375 4.953125 -9.078125 4.875 -8.828125 L 2.953125 -1.125 C 2.8125 -0.5625 2.78125 -0.421875 1.265625 -0.421875 C 0.90625 -0.421875 0.796875 -0.421875 0.796875 -0.140625 C 0.796875 0 0.96875 0 1.03125 0 C 1.390625 0 1.765625 -0.03125 2.125 -0.03125 L 4.359375 -0.03125 C 4.71875 -0.03125 5.109375 0 5.46875 0 C 5.625 0 5.765625 0 5.765625 -0.265625 C 5.765625 -0.421875 5.671875 -0.421875 5.296875 -0.421875 C 4 -0.421875 4 -0.546875 4 -0.765625 C 4 -0.78125 4 -0.875 4.0625 -1.109375 Z M 5.984375 -8.75 "/>
</symbol>
</g>
</defs>
<g id="surface1">
<path style="fill-rule:evenodd;fill:rgb(67.799377%,84.698486%,90.19928%);fill-opacity:1;stroke-width:2;stroke-linecap:butt;stroke-linejoin:round;stroke:rgb(0%,0%,54.499817%);stroke-opacity:1;stroke-miterlimit:10;" d="M 320 704 C 320 739.347656 291.347656 768 256 768 C 220.652344 768 192 739.347656 192 704 C 192 668.652344 220.652344 640 256 640 C 291.347656 640 320 668.652344 320 704 " transform="matrix(1,0,0,-1,-190.5,769.5)"/>
<path style="fill-rule:evenodd;fill:rgb(100%,100%,87.799072%);fill-opacity:1;stroke-width:2;stroke-linecap:butt;stroke-linejoin:round;stroke:rgb(0%,39.199829%,0%);stroke-opacity:1;stroke-miterlimit:10;" d="M 320 704 C 320 730.511719 298.511719 752 272 752 C 245.488281 752 224 730.511719 224 704 C 224 677.488281 245.488281 656 272 656 C 298.511719 656 320 677.488281 320 704 " transform="matrix(1,0,0,-1,-190.5,769.5)"/>
<g style="fill:rgb(0%,0%,54.499817%);fill-opacity:1;">
  <use xlink:href="#glyph0-1" x="22.204" y="97.011"/>
</g>
<g style="fill:rgb(0%,39.199829%,0%);fill-opacity:1;">
  <use xlink:href="#glyph0-2" x="54.11" y="95.004"/>
</g>
<path style=" stroke:none;fill-rule:evenodd;fill:rgb(0%,0%,54.499817%);fill-opacity:1;" d="M 71.363281 48.652344 C 71.363281 47.660156 70.554688 46.855469 69.5625 46.855469 C 68.566406 46.855469 67.761719 47.660156 67.761719 48.652344 C 67.761719 49.648438 68.566406 50.453125 69.5625 50.453125 C 70.554688 50.453125 71.363281 49.648438 71.363281 48.652344 "/>
<path style=" stroke:none;fill-rule:evenodd;fill:rgb(0%,0%,54.499817%);fill-opacity:1;" d="M 99.496094 61.707031 C 99.496094 60.710938 98.691406 59.90625 97.695312 59.90625 C 96.703125 59.90625 95.894531 60.710938 95.894531 61.707031 C 95.894531 62.699219 96.703125 63.507812 97.695312 63.507812 C 98.691406 63.507812 99.496094 62.699219 99.496094 61.707031 "/>
<path style=" stroke:none;fill-rule:evenodd;fill:rgb(0%,0%,54.499817%);fill-opacity:1;" d="M 80.0625 75.339844 C 80.0625 74.34375 79.257812 73.539062 78.261719 73.539062 C 77.269531 73.539062 76.464844 74.34375 76.464844 75.339844 C 76.464844 76.332031 77.269531 77.136719 78.261719 77.136719 C 79.257812 77.136719 80.0625 76.332031 80.0625 75.339844 "/>
<path style=" stroke:none;fill-rule:evenodd;fill:rgb(0%,0%,54.499817%);fill-opacity:1;" d="M 18.28125 52.714844 C 18.28125 51.71875 17.476562 50.914062 16.484375 50.914062 C 15.488281 50.914062 14.683594 51.71875 14.683594 52.714844 C 14.683594 53.710938 15.488281 54.515625 16.484375 54.515625 C 17.476562 54.515625 18.28125 53.710938 18.28125 52.714844 "/>
<path style=" stroke:none;fill-rule:evenodd;fill:rgb(0%,0%,54.499817%);fill-opacity:1;" d="M 46.996094 21.097656 C 46.996094 20.105469 46.191406 19.300781 45.199219 19.300781 C 44.203125 19.300781 43.398438 20.105469 43.398438 21.097656 C 43.398438 22.09375 44.203125 22.898438 45.199219 22.898438 C 46.191406 22.898438 46.996094 22.09375 46.996094 21.097656 "/>
<path style=" stroke:none;fill-rule:evenodd;fill:rgb(0%,0%,54.499817%);fill-opacity:1;" d="M 42.066406 108.984375 C 42.066406 107.988281 41.261719 107.183594 40.265625 107.183594 C 39.273438 107.183594 38.46875 107.988281 38.46875 108.984375 C 38.46875 109.976562 39.273438 110.785156 40.265625 110.785156 C 41.261719 110.785156 42.066406 109.976562 42.066406 108.984375 "/>
<path style=" stroke:none;fill-rule:evenodd;fill:rgb(0%,0%,54.499817%);fill-opacity:1;" d="M 93.40625 84.910156 C 93.40625 83.914062 92.597656 83.109375 91.605469 83.109375 C 90.609375 83.109375 89.804688 83.914062 89.804688 84.910156 C 89.804688 85.902344 90.609375 86.710938 91.605469 86.710938 C 92.597656 86.710938 93.40625 85.902344 93.40625 84.910156 "/>
</g>
</svg>
